@extra/phlat-icons/symbolic/xfce-logo.svg

<?xml version="1.0" encoding="UTF-8" standalone="no"?>
<svg
   xmlns:dc="http://purl.org/dc/elements/1.1/"
   xmlns:cc="http://creativecommons.org/ns#"
   xmlns:rdf="http://www.w3.org/1999/02/22-rdf-syntax-ns#"
   xmlns:svg="http://www.w3.org/2000/svg"
   xmlns="http://www.w3.org/2000/svg"
   height="16"
   width="16"
   version="1.1"
   viewBox="0 0 16 16"
   id="svg26">
  <metadata
     id="metadata30">
    <rdf:RDF>
      <cc:Work
         rdf:about="">
        <dc:format>image/svg+xml</dc:format>
        <dc:type
           rdf:resource="http://purl.org/dc/dcmitype/StillImage" />
        <dc:title>XFCE 4 Logo</dc:title>
      </cc:Work>
    </rdf:RDF>
  </metadata>
  <title
     id="title2">XFCE 4 Logo</title>
  <defs
     id="defs10">
    <mask
       id="mask4616"
       maskUnits="userSpaceOnUse">
      <rect
         height="145"
         width="520"
         y="560"
         x="70"
         id="rect4"
         style="fill:#ffffff" />
    </mask>
  </defs>
  <path
     d="m 117,575 -22,22 30,35 -32,33 20,20 30,-37 32,37 20,-23 -33,-33 33,-34 -22,-20 -28,35 z m 243,4 c -27.765,6.073 -78.334,21.409 -72.084,71.824 1.0688,11.194 18.701,42.521 82.084,34.176 -0.23636,-8.6171 0.2363,-17.383 0,-26 -13.974,0.35096 -46.629,7.7378 -49.965,-18.268 1.26,-26.54 26.82,-27.62 44.96,-33.73 -1.896,-9.0118 -3.104,-18.988 -5,-28 z m 28,1 v 102 l 58,3 v -25 h -28 v -15 l 23,-3 v -22 h -23 l -2,-17 h 30 v -23 z m 147.71,0.24023 c -11.44,0.30338 -14.834,29.107 -15.41,29.945 -1.4013,2.0396 -60.739,-8.1243 -69.658,17.666 -5.009,14.174 40.478,42.969 44.621,47.301 4.1415,4.3316 2.6901,9.6122 0.14063,12.559 -2.8874,3.1709 -19.709,12.44 -18.957,18.625 0.64499,3.6152 29.93,-3.2416 31.121,-0.31641 2.9085,5.7154 -22.977,13.337 -16.658,23.721 2.782,2.7425 43.15,-7.3712 43.016,-7.1836 0.9139,0.57573 50.255,19.821 91.936,15.865 1.463,-0.11168 20.546,28.14 23.418,27.881 3.979,-0.61154 -1.3603,-21.484 0.41601,-25.035 2.0874,-1.7569 15.21,11.931 17.16,6.7852 2.4587,-6.7843 -10.361,-17.751 -8.7559,-22.252 9.0268,-25.59 6.7627,-42.089 0.22656,-56.787 -2.0897,-5.347 42.668,-26.804 73.105,-32.707 30.436,-5.9035 47.414,-12.707 45.928,-13.959 -0.94934,-0.36245 -28.051,7.6289 -45.418,8.7773 -30.874,1.5832 -62.223,18.788 -77.793,29.148 -1.1843,0.91658 -9.5725,-9.8288 -20.338,-11.346 -14.709,-2.0499 -62.228,1.5205 -66.5,-8.3008 -2.6238,-5.7891 -1.1135,-11.952 -5.1465,-15.408 -2.3088,-1.1782 13.472,-19.997 2.5684,-29.234 -7.8654,-6.1352 -20.189,16.888 -22.988,19.178 -1.2536,1.0242 -6.6486,0.26208 -5.4531,-2.4062 1.2971,-2.8987 14.625,-24.661 4.832,-30.736 -1.9779,-1.2846 -3.7778,-1.8226 -5.4121,-1.7793 z m -275.9,1.8086 c -16.614,-0.0334 -49.832,0.0996 -49.832,0.0996 l 0.02,102.85 h 33 l -0.52539,-37.852 h 27.5 l -1.97,-22.15 h -28 v -18 l 30,-1 -0.96094,-23.852 c -0.002,-0.0594 -3.6946,-0.0885 -9.2324,-0.0996 z m 197.77,3.4356 c -0.0721,-0.0129 -0.12234,-0.008 -0.18164,0.0234 -0.87149,0.57109 5.3622,24.136 7.3144,23.209 3.1412,-1.4727 -4.8997,-22.825 -7.1328,-23.232 z m 15.115,0.13867 c -0.0292,-0.0199 -0.0374,0.0208 -0.0684,0.0449 -1.7764,0.81627 -3.2434,23.234 -1.291,22.307 2.1016,-0.54455 2.2549,-21.73 1.3594,-22.352 z m 36.697,34.48 c 0.34641,-0.01 0.69748,0.019 1.0488,0.0898 2.8107,0.56673 4.5613,3.5889 3.916,6.7891 -0.64524,3.2002 -3.4412,5.3616 -6.252,4.7949 -2.8108,-0.56674 -4.5495,-3.6436 -3.9043,-6.8438 0.56464,-2.8002 2.7666,-4.7629 5.1914,-4.8301 z m 11.76,5.873 c 4.3387,4.5975 -7.5458,23.249 -18.053,8.8301 10.067,2.3396 14.009,0.067 18.053,-8.8301 z m -33.264,18.76 c 0.31112,-0.006 0.66793,0.0507 1.0625,0.16406 5.5241,1.5878 18.532,13.741 18.072,14.629 -0.45477,1.3316 -25.371,-13.769 -19.922,-14.586 0.21048,-0.13379 0.47598,-0.20143 0.78711,-0.20703 z m -3.8965,5.6172 c 0.13157,-0.007 0.26944,0.004 0.40625,0.043 v -0.002 c 4.1041,1.1642 12.965,17.34 11.16,17.988 0.14989,0.41599 -17.689,-14.169 -11.936,-17.965 0.11328,-0.0322 0.23757,-0.0574 0.36914,-0.0644 z"
     mask="url(#mask4616)"
     transform="translate(-42.07,-721.98)"
     id="path12"
     style="opacity:0;stroke-width:0.49950999" />
  <g
     transform="translate(62.076,-234.427)"
     id="g24">
    <path
       id="path4522"
       transform="translate(-62.076,234.427)"
       d="M 8.4101562,1 C 7.6962754,1 7.5732059,3 7,4 6.859616,4.2281701 1.9325835,3.4842306 1.0390625,6.3691406 0.5372525,7.9545606 4.646022,11.46917 5,12 5.297856,12.44667 5.1032911,13.224601 4.7050781,13.712891 4.4359401,14.042911 4.14366,14.3162 4,15 H 14.25 C 14.6655,15 15,14.6655 15,14.25 V 8.7050781 C 15,8.0004507 14.99979,8 14.511719,8 13.032598,8 13.179926,7.9481481 13,7.4863281 13.231917,5.7001181 13.10391,3.18363 12,2 11.328913,1.26805 11.05215,4.1060431 10.333984,4.5332031 10.213511,4.6489927 10,4.6367188 10,4.6367188 10,3.3955778 9.6739809,1.6630647 8.4101562,1 Z m -1.98722,5 c 0.2761426,-2e-7 0.5000004,0.2238576 0.5,0.5 4e-7,0.2761424 -0.2238574,0.5000002 -0.5,0.5 -0.2761426,2e-7 -0.5000004,-0.2238576 -0.5,-0.5 -4e-7,-0.2761424 0.2238574,-0.5000002 0.5,-0.5 z m 1.390625,1 C 7.8701673,6.9866572 7.9065587,6.9989864 7.91903,7.0507812 7.96891,7.2584513 7.7427074,7.8232187 7.1924674,7.9804688 6.6223694,8.1433887 5.9767285,8.0587925 5.9268424,7.8515625 5.8769624,7.6443925 6.3316796,7.7033619 6.8819206,7.4824219 7.2946006,7.3167619 7.643743,7.0400284 7.8135612,7 Z M 3.6660569,7.4862414 c 0.2861469,0.00906 0.4971993,2.207797 0.3652343,2.216797 -0.00882,0 -0.015691,-0.00186 -0.025391,-0.00586 -0.288372,-0.130382 -0.7997807,-2.227038 -0.3398437,-2.210938 z m 0.7421874,0.042969 c 0.274978,-0.0797 1.1520549,1.944941 1.0292969,1.9941402 -0.00834,0.00265 -0.015131,0.00261 -0.025391,0.00195 C 5.0976076,9.4902954 3.9657904,7.6558301 4.4082443,7.5292102 Z"
       style="opacity:1;fill:#f1f2f2;stroke-width:0.10586031" />
    <path
       d="m -61.043395,236.42737 c -0.009,-6.5e-4 -0.01508,-6.5e-4 -0.02238,0.002 -0.107382,0.0492 0.660695,2.07531 0.901233,1.99561 0.387038,-0.12662 -0.603711,-1.96258 -0.878858,-1.99759 z"
       id="path4518"
       style="opacity:1;fill:#f1f2f2;stroke-width:0.1029289" />
    <rect
       height="1"
       width="518.31"
       y="23.879999"
       x="28.979"
       id="rect20"
       style="opacity:0.2;fill:#ffffff" />
    <path
       style="opacity:1;fill:#f1f2f2;stroke-width:0.11005115"
       id="path4508"
       d="m -59.631597,236.25686 c -0.0097,-0.004 -0.01621,-0.006 -0.02503,-0.006 -0.131965,0.009 0.07784,2.20711 0.363987,2.21617 0.459937,0.0161 -0.05067,-2.07977 -0.339042,-2.21015 z" />
  </g>
</svg>

<svg xmlns="http://www.w3.org/2000/svg" viewBox="0 0 16 16">
    <path d="M8.41 1C7.696 1 7.573 3 7 4c-.14.228-5.067-.516-5.96 2.37C.536 7.954 4.645 11.47 5 12c.298.447.103 1.225-.295 1.713-.27.33-.561.603-.705 1.287h10.25c.415 0 .75-.335.75-.75V8.705C15 8 15 8 14.512 8c-1.48 0-1.332-.052-1.512-.514.232-1.786.104-4.302-1-5.486-.671-.732-.948 2.106-1.666 2.533-.12.116-.334.104-.334.104C10 3.396 9.674 1.663 8.41 1zM6.423 6a.5.5 0 1 1 0 1 .5.5 0 0 1 0-1zm1.39 1c.057-.013.094-.001.106.05.05.208-.176.773-.727.93-.57.163-1.215.079-1.265-.128-.05-.208.405-.149.955-.37.413-.165.762-.442.932-.482zm-4.147.486c.286.01.497 2.208.365 2.217a.062.062 0 0 1-.025-.006c-.288-.13-.8-2.227-.34-2.21zm.742.043c.275-.08 1.152 1.945 1.03 1.994a.063.063 0 0 1-.026.002c-.314-.035-1.446-1.87-1.004-1.996zM1.033 2a.05.05 0 0 0-.023.002c-.107.05.66 2.076.901 1.996.387-.127-.603-1.963-.878-1.998z" fill="#f1f2f2"/>
    <path opacity=".2" fill="#fff" d="M91.055-210.547h518.31v1H91.055z"/>
    <path d="M2.444 1.83a.06.06 0 0 0-.025-.006c-.132.009.078 2.207.364 2.216.46.016-.05-2.08-.339-2.21z" fill="#f1f2f2"/>
</svg>
